src/svg/monochrome/20/inactive.svg

<svg width="20" height="20" viewBox="0 0 20 20" fill="none" xmlns="http://www.w3.org/2000/svg">
<g id="inactive">
<path id="Vector (Stroke)" d="M11.4642 17.3572C11.8028 17.2902 12.1321 17.5105 12.1991 17.8491C12.266 18.1876 12.0456 18.5163 11.7072 18.5834C11.1546 18.6927 10.5836 18.75 10 18.75C9.41643 18.75 8.84543 18.6927 8.29285 18.5834C7.95437 18.5163 7.734 18.1876 7.8009 17.8491C7.86789 17.5105 8.19715 17.2902 8.53577 17.3572C9.00884 17.4508 9.49836 17.5 10 17.5C10.5016 17.5 10.9912 17.4508 11.4642 17.3572ZM2.89612 13.9948C3.16498 13.815 3.52252 13.8716 3.72437 14.1156L3.76282 14.1669L3.97583 14.4678C4.41555 15.0596 4.94037 15.5844 5.53223 16.0242L5.83313 16.2372L5.8844 16.2756C6.12838 16.4775 6.18501 16.835 6.00525 17.1039C5.82525 17.3727 5.47254 17.4576 5.19287 17.309L5.13794 17.276L4.96033 17.1539C4.14049 16.5754 3.4246 15.8595 2.84607 15.0397L2.724 14.8621L2.69104 14.8071C2.54242 14.5275 2.62726 14.1747 2.89612 13.9948ZM16.2756 14.1156C16.4775 13.8716 16.835 13.815 17.1039 13.9948C17.3907 14.1868 17.468 14.5752 17.276 14.8621L17.1539 15.0397C16.534 15.9182 15.7563 16.6773 14.8621 17.276L14.8071 17.309C14.5275 17.4576 14.1747 17.3727 13.9948 17.1039C13.803 16.8171 13.8801 16.4291 14.1669 16.2372L14.4678 16.0242C15.1582 15.5112 15.7579 14.8827 16.2372 14.1669L16.2756 14.1156ZM1.25 10C1.25 9.41643 1.30731 8.84543 1.41663 8.29285C1.48369 7.95437 1.81237 7.734 2.15088 7.8009C2.48949 7.86789 2.70981 8.19715 2.64282 8.53577C2.54924 9.00884 2.5 9.49836 2.5 10C2.5 10.5016 2.54924 10.9912 2.64282 11.4642C2.70981 11.8028 2.48949 12.1321 2.15088 12.1991C1.81237 12.266 1.48369 12.0456 1.41663 11.7072C1.30731 11.1546 1.25 10.5836 1.25 10ZM17.5 10C17.5 9.49836 17.4508 9.00884 17.3572 8.53577L18.5834 8.29285C18.6927 8.84543 18.75 9.41643 18.75 10C18.75 10.5836 18.6927 11.1546 18.5834 11.7072C18.5163 12.0456 18.1876 12.266 17.8491 12.1991C17.5105 12.1321 17.2902 11.8028 17.3572 11.4642C17.4508 10.9912 17.5 10.5016 17.5 10ZM17.8491 7.8009C18.1876 7.734 18.5163 7.95437 18.5834 8.29285L17.3572 8.53577C17.2902 8.19715 17.5105 7.86789 17.8491 7.8009ZM5.19287 2.69104C5.47254 2.54242 5.82525 2.62726 6.00525 2.89612C6.197 3.18292 6.11985 3.57086 5.83313 3.76282L5.53223 3.97583C4.84179 4.4888 4.24209 5.11726 3.76282 5.83313L3.72437 5.8844C3.52252 6.12838 3.16498 6.18501 2.89612 6.00525C2.60932 5.81324 2.53205 5.42476 2.724 5.13794L2.84607 4.96033C3.46598 4.08185 4.2437 3.32268 5.13794 2.724L5.19287 2.69104ZM13.9948 2.89612C14.1747 2.62726 14.5275 2.54242 14.8071 2.69104L14.8621 2.724L15.0397 2.84607C15.8595 3.4246 16.5754 4.14049 17.1539 4.96033L17.276 5.13794L17.309 5.19287C17.4576 5.47254 17.3727 5.82525 17.1039 6.00525C16.835 6.18501 16.4775 6.12838 16.2756 5.8844L16.2372 5.83313L16.0242 5.53223C15.5844 4.94037 15.0596 4.41555 14.4678 3.97583L14.1669 3.76282L14.1156 3.72437C13.8716 3.52252 13.815 3.16498 13.9948 2.89612ZM10 1.25C10.5836 1.25 11.1546 1.30731 11.7072 1.41663C12.0456 1.48369 12.266 1.81237 12.1991 2.15088C12.1321 2.48949 11.8028 2.70981 11.4642 2.64282C10.9912 2.54924 10.5016 2.5 10 2.5C9.49836 2.5 9.00884 2.54924 8.53577 2.64282C8.19715 2.70981 7.86789 2.48949 7.8009 2.15088C7.734 1.81237 7.95437 1.48369 8.29285 1.41663C8.84543 1.30731 9.41643 1.25 10 1.25Z" fill="#3D3C3C"/>
</g>
</svg>

<svg xmlns="http://www.w3.org/2000/svg" width="20" height="20" fill="currentColor" viewBox="0 0 20 20">
  <path d="M11.464 17.357a.626.626 0 0 1 .243 1.226 8.793 8.793 0 0 1-3.414 0 .625.625 0 1 1 .243-1.226 7.538 7.538 0 0 0 2.928 0Zm-8.568-3.362a.625.625 0 0 1 .828.12l.039.052.213.3a7.55 7.55 0 0 0 1.556 1.557l.301.213.051.039a.625.625 0 0 1-.691 1.033l-.055-.033-.178-.122a8.796 8.796 0 0 1-2.114-2.114l-.122-.178-.033-.055a.626.626 0 0 1 .205-.812Zm13.38.12a.625.625 0 0 1 1 .747l-.122.178a8.796 8.796 0 0 1-2.292 2.236l-.055.033a.626.626 0 0 1-.64-1.072l.3-.213a7.548 7.548 0 0 0 1.77-1.857l.039-.051ZM1.25 10c0-.584.057-1.155.167-1.707a.625.625 0 1 1 1.226.243 7.54 7.54 0 0 0 0 2.928.626.626 0 0 1-1.226.243A8.792 8.792 0 0 1 1.25 10Zm16.25 0c0-.502-.05-.991-.143-1.464l1.226-.243a8.793 8.793 0 0 1 0 3.414.625.625 0 0 1-1.226-.243c.094-.473.143-.962.143-1.464Zm.35-2.2a.625.625 0 0 1 .733.493l-1.226.243a.626.626 0 0 1 .492-.735ZM5.192 2.692a.626.626 0 0 1 .64 1.072l-.3.213a7.545 7.545 0 0 0-1.77 1.857l-.039.051a.625.625 0 0 1-1-.746l.122-.178a8.796 8.796 0 0 1 2.292-2.236l.055-.033Zm8.802.205a.626.626 0 0 1 .812-.205l.055.033.178.122a8.796 8.796 0 0 1 2.114 2.114l.122.178.033.055a.626.626 0 0 1-1.033.691l-.039-.05-.213-.302a7.55 7.55 0 0 0-1.556-1.556l-.301-.213-.051-.039a.625.625 0 0 1-.121-.828ZM10 1.25a8.73 8.73 0 0 1 1.707.167.625.625 0 1 1-.243 1.226 7.539 7.539 0 0 0-2.928 0 .626.626 0 0 1-.243-1.226A8.791 8.791 0 0 1 10 1.25Z"/>
</svg>
